X:370
T:Meadowlands
Z:Jack Campin, http://www.campin.me.uk/
F:Jack Campin's Nine-Note Tunebook
% last edit 03-02-2013
H:marching song of the Red Army in WW2
M:C|
L:1/8
Q:1/2=56
K:DMin
B4   G2B2|A4   F2D2|BAGF G2d2|A4 F2D2|
G2FE DCDE|D2A2 F2D2|G2FE DCDE|D8    |]

